;FLAVOR:Marlin
;TIME:4092
;Filament used: 2.26187m
;Layer height: 0.2
;MINX:39.302
;MINY:57
;MINZ:0.2
;MAXX:169.099
;MAXY:169.114
;MAXZ:10
;Generated with Cura_SteamEngine 4.13.1
M140 S60
M105
M190 S60
M104 S200
M105
M109 S200
M82 ;absolute extrusion mode
; Ender 3 Custom Start G-code
G92 E0 ; Reset Extruder
G28 ; Home all axes
G1 Z2.0 F3000 ; Move Z Axis up little to prevent scratching of Heat Bed
G1 X0.1 Y20 Z0.3 F5000.0 ; Move to start position
G1 X0.1 Y200.0 Z0.3 F1500.0 E15 ; Draw the first line
G1 X0.4 Y200.0 Z0.3 F5000.0 ; Move to side a little
G1 X0.4 Y20 Z0.3 F1500.0 E30 ; Draw the second line
G92 E0 ; Reset Extruder
G1 Z2.0 F3000 ; Move Z Axis up little to prevent scratching of Heat Bed
G1 X5 Y20 Z0.3 F5000.0 ; Move over to prevent blob squish
G92 E0
G92 E0
G1 F1500 E-6.5
;LAYER_COUNT:50
;LAYER:0
M107
G0 F6000 X56.039 Y81.076 Z0.2
;TYPE:SKIRT
G1 F1500 E0
G1 F1200 X56.663 Y80.711 E0.02404
G1 X58.907 Y79.498 E0.10889
G1 X61.053 Y78.257 E0.19134
G1 X63.183 Y76.944 E0.27456
G1 X65.337 Y75.533 E0.36021
G1 X67.353 Y74.127 E0.44195
G1 X69.396 Y72.616 E0.52647
G1 X71.384 Y71.057 E0.6105
G1 X73.315 Y69.45 E0.69405
G1 X75.201 Y67.788 E0.77766
G1 X77.039 Y66.078 E0.86116
G1 X78.823 Y64.319 E0.94449
G1 X80.604 Y62.459 E1.03014
G1 X81.695 Y61.267 E1.08389
G1 X82.211 Y60.692 E1.10958
G1 X82.867 Y60.022 E1.14077
G1 X83.577 Y59.409 E1.17197
G1 X84.337 Y58.859 E1.20317
G1 X85.14 Y58.376 E1.23434
G1 X85.982 Y57.963 E1.26553
G1 X86.857 Y57.623 E1.29675
G1 X87.757 Y57.359 E1.32795
G1 X89 Y57.126 E1.37001
G1 X89.187 Y57.102 E1.37628
G1 X90.418 Y57.014 E1.41733
G1 X91.432 Y57 E1.45106
G1 X128.911 Y57 E2.69761
G1 X129.77 Y57.011 E2.72619
G1 X130.706 Y57.064 E2.75737
G1 X131.634 Y57.197 E2.78855
G1 X132.548 Y57.409 E2.81976
G1 X133.441 Y57.697 E2.85096
G1 X134.305 Y58.061 E2.88215
G1 X135.136 Y58.497 E2.91336
G1 X135.926 Y59.002 E2.94454
G1 X136.67 Y59.572 E2.97572
G1 X137.363 Y60.204 E3.00691
G1 X137.763 Y60.623 E3.02618
G1 X138.571 Y61.515 E3.06621
G1 X140.397 Y63.474 E3.15528
G1 X142.156 Y65.257 E3.23859
G1 X143.965 Y66.99 E3.32191
G1 X145.86 Y68.706 E3.40694
G1 X147.752 Y70.323 E3.48972
G1 X149.713 Y71.906 E3.57354
G1 X151.724 Y73.437 E3.6576
G1 X153.767 Y74.903 E3.74124
G1 X155.842 Y76.306 E3.82455
G1 X157.97 Y77.657 E3.90838
G1 X160.145 Y78.954 E3.99261
G1 X162.427 Y80.23 E4.07957
G1 X163.317 Y80.71 E4.1132
G1 X164.122 Y81.19 E4.14437
G1 X164.884 Y81.737 E4.17557
G1 X165.596 Y82.347 E4.20676
G1 X166.254 Y83.016 E4.23797
G1 X166.852 Y83.738 E4.26915
G1 X167.387 Y84.508 E4.30033
G1 X167.854 Y85.322 E4.33155
G1 X168.25 Y86.172 E4.36273
G1 X168.573 Y87.052 E4.39391
G1 X168.819 Y87.957 E4.42511
G1 X168.987 Y88.88 E4.45631
G1 X169.086 Y90.07 E4.49602
G1 X169.095 Y90.38 E4.50634
G1 X169.099 Y90.861 E4.52234
G1 X169.089 Y91.539 E4.54489
G1 X169.035 Y92.476 E4.57611
G1 X168.905 Y93.388 E4.60675
G1 X168.828 Y93.802 E4.62075
G1 X168.406 Y96.27 E4.70403
G1 X168.051 Y98.765 E4.78785
G1 X167.766 Y101.272 E4.87177
G1 X167.551 Y103.809 E4.95645
G1 X167.411 Y106.272 E5.03851
G1 X167.34 Y108.823 E5.12339
G1 X167.34 Y111.317 E5.20634
G1 X167.412 Y113.866 E5.29115
G1 X167.555 Y116.365 E5.3744
G1 X167.766 Y118.852 E5.45742
G1 X168.053 Y121.373 E5.54181
G1 X168.407 Y123.858 E5.62529
G1 X168.867 Y126.505 E5.71465
G1 X168.919 Y126.822 E5.72534
G1 X169.008 Y127.493 E5.74785
G1 X169.022 Y127.631 E5.75246
G1 X169.062 Y128.15 E5.76978
G1 X169.082 Y128.522 E5.78217
G1 X169.093 Y129.46 E5.81337
G1 X169.023 Y130.396 E5.84459
G1 X168.874 Y131.322 E5.87578
G1 X168.647 Y132.231 E5.90694
G1 X168.343 Y133.119 E5.93816
G1 X167.964 Y133.977 E5.96936
G1 X167.514 Y134.8 E6.00056
G1 X166.995 Y135.581 E6.03175
G1 X166.412 Y136.315 E6.06292
G1 X165.768 Y136.997 E6.09412
G1 X165.069 Y137.622 E6.12531
G1 X164.319 Y138.185 E6.1565
G1 X163.448 Y138.725 E6.19058
G1 X161.044 Y140.063 E6.28209
G1 X158.917 Y141.326 E6.36437
G1 X156.789 Y142.672 E6.44812
G1 X154.665 Y144.102 E6.53328
G1 X152.665 Y145.532 E6.61505
G1 X150.633 Y147.075 E6.69992
G1 X148.678 Y148.647 E6.78335
G1 X146.776 Y150.267 E6.86645
G1 X144.882 Y151.975 E6.95128
G1 X143.076 Y153.702 E7.03439
G1 X141.305 Y155.49 E7.11809
G1 X139.538 Y157.377 E7.20407
G1 X138.617 Y158.409 E7.25008
G1 X137.871 Y159.257 E7.28764
G1 X137.222 Y159.934 E7.31884
G1 X136.518 Y160.553 E7.35002
G1 X135.763 Y161.11 E7.38122
G1 X134.964 Y161.601 E7.41241
G1 X134.126 Y162.022 E7.4436
G1 X133.255 Y162.37 E7.4748
G1 X132.358 Y162.643 E7.50599
G1 X131.441 Y162.838 E7.53717
G1 X130.51 Y162.954 E7.56837
G1 X129.93 Y162.986 E7.58769
G1 X129.619 Y162.995 E7.59804
G1 X129.133 Y162.999 E7.61421
G1 X128.479 Y162.989 E7.63596
G1 X128.197 Y162.981 E7.64534
G1 X127.988 Y162.972 E7.6523
G1 X125.46 Y162.9 E7.73642
G1 X122.937 Y162.9 E7.82033
G1 X120.412 Y162.971 E7.90435
G1 X117.891 Y163.113 E7.98833
G1 X115.367 Y163.326 E8.07258
G1 X112.905 Y163.605 E8.15499
G1 X110.373 Y163.965 E8.24005
G1 X107.914 Y164.386 E8.32303
G1 X105.435 Y164.882 E8.40711
G1 X103.024 Y165.435 E8.48938
G1 X100.574 Y166.072 E8.57358
G1 X98.131 Y166.781 E8.65819
G1 X95.754 Y167.545 E8.74123
G1 X93.769 Y168.25 E8.81129
G1 X93.086 Y168.484 E8.8353
G1 X92.187 Y168.75 E8.86649
G1 X90.809 Y169.002 E8.91308
G1 X90.58 Y169.029 E8.92075
G1 X89.601 Y169.101 E8.9534
G1 X89.281 Y169.11 E8.96405
G1 X88.972 Y169.114 E8.97432
G1 X50.867 Y169.113 E10.2417
G1 X50.169 Y169.104 E10.26492
G1 X49.233 Y169.052 E10.2961
G1 X48.304 Y168.92 E10.32731
G1 X47.39 Y168.71 E10.3585
G1 X46.497 Y168.423 E10.3897
G1 X45.632 Y168.06 E10.4209
G1 X44.801 Y167.626 E10.45208
G1 X44.01 Y167.122 E10.48327
G1 X43.265 Y166.552 E10.51447
G1 X42.571 Y165.921 E10.54567
G1 X41.934 Y165.234 E10.57683
G1 X41.357 Y164.494 E10.60804
G1 X40.845 Y163.708 E10.63924
G1 X40.402 Y162.881 E10.67045
G1 X40.031 Y162.02 E10.70163
G1 X39.735 Y161.13 E10.73282
G1 X39.516 Y160.218 E10.76402
G1 X39.375 Y159.291 E10.79521
G1 X39.315 Y158.402 E10.82484
G1 X39.306 Y158.069 E10.83592
G1 X39.302 Y157.772 E10.8458
G1 X39.303 Y131.665 E11.71412
G1 X39.313 Y130.962 E11.73751
G1 X39.366 Y130.025 E11.76872
G1 X39.499 Y129.097 E11.7999
G1 X39.711 Y128.183 E11.83111
G1 X39.999 Y127.291 E11.86229
G1 X40.482 Y126.181 E11.90255
G1 X40.779 Y125.593 E11.92446
G1 X41.573 Y124.07 E11.98158
G1 X42.689 Y121.777 E12.0664
G1 X43.717 Y119.5 E12.1495
G1 X44.674 Y117.21 E12.23205
G1 X45.602 Y114.798 E12.318
G1 X46.435 Y112.44 E12.40118
G1 X47.199 Y110.062 E12.48425
G1 X47.906 Y107.631 E12.56846
G1 X48.532 Y105.223 E12.65121
G1 X49.1 Y102.755 E12.73544
G1 X49.603 Y100.257 E12.82019
G1 X50.021 Y97.803 E12.90299
G1 X50.375 Y95.318 E12.98648
G1 X50.662 Y92.79 E13.0711
G1 X50.877 Y90.259 E13.15558
G1 X50.924 Y89.605 E13.17739
G1 X51.03 Y88.674 E13.20856
G1 X51.216 Y87.754 E13.23977
G1 X51.479 Y86.854 E13.27096
G1 X51.818 Y85.98 E13.30214
G1 X52.23 Y85.137 E13.33335
G1 X52.712 Y84.333 E13.36453
G1 X53.261 Y83.572 E13.39574
G1 X53.873 Y82.862 E13.42691
G1 X54.543 Y82.206 E13.4581
G1 X55.267 Y81.609 E13.48931
G1 X56.039 Y81.076 E13.52051
G0 F6000 X56.41 Y81.317
G1 F1200 X56.854 Y81.063 E13.53753
G1 X59.076 Y79.861 E13.62155
G1 X61.257 Y78.601 E13.70533
G1 X63.416 Y77.27 E13.78968
G1 X65.539 Y75.879 E13.8741
G1 X67.614 Y74.432 E13.95824
G1 X69.635 Y72.937 E14.04185
G1 X71.62 Y71.38 E14.12576
G1 X73.572 Y69.756 E14.21022
G1 X75.474 Y68.08 E14.29453
G1 X77.309 Y66.373 E14.37789
G1 X79.127 Y64.581 E14.46279
G1 X80.884 Y62.746 E14.54729
G1 X82.006 Y61.52 E14.60257
G1 X82.509 Y60.959 E14.62763
G1 X83.153 Y60.301 E14.65825
G1 X83.851 Y59.702 E14.68884
G1 X84.599 Y59.165 E14.71947
G1 X85.391 Y58.695 E14.7501
G1 X86.221 Y58.296 E14.78073
G1 X87.082 Y57.97 E14.81135
G1 X87.968 Y57.72 E14.84197
G1 X89.051 Y57.523 E14.87858
G1 X89.238 Y57.499 E14.88485
G1 X90.424 Y57.414 E14.9244
G1 X91.432 Y57.4 E14.95793
G1 X128.911 Y57.4 E16.20449
G1 X129.764 Y57.411 E16.23286
G1 X130.683 Y57.464 E16.26348
G1 X131.594 Y57.597 E16.2941
G1 X132.49 Y57.808 E16.32471
G1 X133.365 Y58.096 E16.35535
G1 X134.211 Y58.459 E16.38597
G1 X135.022 Y58.894 E16.41658
G1 X135.793 Y59.398 E16.44722
G1 X136.517 Y59.966 E16.47782
G1 X137.467 Y60.891 E16.52192
G1 X138.352 Y61.867 E16.56574
G1 X140.102 Y63.745 E16.65112
G1 X141.877 Y65.544 E16.73518
G1 X143.702 Y67.293 E16.81925
G1 X145.577 Y68.99 E16.90337
G1 X147.503 Y70.636 E16.98763
G1 X149.469 Y72.224 E17.07169
G1 X151.471 Y73.748 E17.15537
G1 X153.532 Y75.226 E17.23973
G1 X155.634 Y76.648 E17.32413
G1 X157.772 Y78.006 E17.40838
G1 X159.924 Y79.289 E17.49171
G1 X162.248 Y80.588 E17.58026
G1 X163.127 Y81.062 E17.61347
G1 X163.917 Y81.534 E17.64408
G1 X164.663 Y82.073 E17.67469
G1 X165.36 Y82.674 E17.7053
G1 X166.002 Y83.334 E17.73593
G1 X166.585 Y84.047 E17.76656
G1 X167.103 Y84.808 E17.79718
G1 X167.553 Y85.611 E17.82779
G1 X167.932 Y86.45 E17.85841
G1 X168.237 Y87.319 E17.88905
G1 X168.465 Y88.211 E17.91967
G1 X168.615 Y89.119 E17.95028
G1 X168.687 Y90.081 E17.98236
G1 X168.696 Y90.391 E17.99268
G1 X168.699 Y90.855 E18.00811
G1 X168.689 Y91.533 E18.03066
G1 X168.635 Y92.452 E18.06128
G1 X168.511 Y93.315 E18.09028
G1 X168.451 Y93.639 E18.10124
G1 X168.009 Y96.218 E18.18827
G1 X167.651 Y98.735 E18.27283
G1 X167.368 Y101.229 E18.35631
G1 X167.154 Y103.751 E18.44049
G1 X167.011 Y106.274 E18.52454
G1 X166.94 Y108.812 E18.60899
G1 X166.94 Y111.328 E18.69267
G1 X167.012 Y113.864 E18.77706
G1 X167.155 Y116.384 E18.86101
G1 X167.373 Y118.933 E18.9461
G1 X167.653 Y121.408 E19.02894
G1 X168.01 Y123.913 E19.1131
G1 X168.472 Y126.57 E19.2028
G1 X168.524 Y126.887 E19.21348
G1 X168.61 Y127.533 E19.23516
G1 X168.624 Y127.671 E19.23977
G1 X168.663 Y128.172 E19.25648
G1 X168.683 Y128.544 E19.26887
G1 X168.692 Y129.465 E19.29951
G1 X168.622 Y130.382 E19.3301
G1 X168.472 Y131.291 E19.36074
G1 X168.244 Y132.183 E19.39136
G1 X167.939 Y133.052 E19.42199
G1 X167.56 Y133.891 E19.45261
G1 X167.11 Y134.694 E19.48323
G1 X166.592 Y135.455 E19.51385
G1 X166.009 Y136.168 E19.54448
G1 X165.367 Y136.828 E19.5751
G1 X164.671 Y137.429 E19.60569
G1 X163.924 Y137.968 E19.63633
G1 X163.253 Y138.375 E19.66243
G1 X160.867 Y139.703 E19.75325
G1 X158.705 Y140.987 E19.83688
G1 X156.557 Y142.346 E19.92143
G1 X154.472 Y143.75 E20.00503
G1 X152.397 Y145.233 E20.08986
G1 X150.409 Y146.743 E20.17289
G1 X148.41 Y148.349 E20.25818
G1 X146.495 Y149.981 E20.34186
G1 X144.639 Y151.655 E20.42499
G1 X142.798 Y153.414 E20.50968
G1 X141.011 Y155.219 E20.59416
G1 X139.252 Y157.098 E20.67977
G1 X138.262 Y158.206 E20.72919
G1 X137.571 Y158.992 E20.764
G1 X136.933 Y159.657 E20.79465
G1 X136.24 Y160.263 E20.82527
G1 X135.498 Y160.807 E20.85587
G1 X134.71 Y161.284 E20.8865
G1 X133.885 Y161.692 E20.91712
G1 X133.027 Y162.026 E20.94774
G1 X132.143 Y162.284 E20.97837
G1 X131.241 Y162.465 E21.00897
G1 X129.919 Y162.587 E21.05312
G1 X129.608 Y162.596 E21.06347
G1 X129.139 Y162.599 E21.07907
G1 X128.485 Y162.589 E21.10083
G1 X128.1 Y162.576 E21.11364
G1 X125.436 Y162.5 E21.20228
G1 X122.926 Y162.5 E21.28576
G1 X120.377 Y162.571 E21.37057
G1 X117.871 Y162.712 E21.45406
G1 X115.359 Y162.925 E21.53791
G1 X112.84 Y163.21 E21.62222
G1 X110.315 Y163.569 E21.70705
G1 X107.846 Y163.992 E21.79036
G1 X105.365 Y164.488 E21.87452
G1 X102.915 Y165.05 E21.95812
G1 X100.425 Y165.698 E22.0437
G1 X98.045 Y166.389 E22.12612
G1 X95.624 Y167.167 E22.2107
G1 X93.64 Y167.872 E22.28073
G1 X92.957 Y168.106 E22.30475
G1 X92.073 Y168.366 E22.33539
G1 X90.762 Y168.605 E22.37972
G1 X90.533 Y168.632 E22.38738
G1 X89.59 Y168.701 E22.41883
G1 X89.27 Y168.71 E22.42948
G1 X88.972 Y168.714 E22.43939
G1 X50.872 Y168.713 E23.7066
G1 X50.174 Y168.704 E23.72982
G1 X49.255 Y168.652 E23.76044
G1 X48.344 Y168.521 E23.79105
G1 X47.448 Y168.311 E23.82166
G1 X46.573 Y168.024 E23.85228
G1 X45.726 Y167.662 E23.88292
G1 X44.914 Y167.228 E23.91354
G1 X44.143 Y166.726 E23.94414
G1 X43.418 Y166.158 E23.97478
G1 X42.745 Y165.529 E24.00542
G1 X42.13 Y164.845 E24.03601
G1 X41.576 Y164.11 E24.06662
G1 X41.088 Y163.329 E24.09725
G1 X40.669 Y162.509 E24.12788
G1 X40.323 Y161.656 E24.1585
G1 X40.053 Y160.776 E24.18911
G1 X39.86 Y159.875 E24.21976
G1 X39.746 Y158.962 E24.25036
G1 X39.715 Y158.391 E24.26938
G1 X39.706 Y158.058 E24.28046
G1 X39.702 Y157.772 E24.28997
G1 X39.703 Y131.67 E25.15813
G1 X39.713 Y130.967 E25.18151
G1 X39.766 Y130.048 E25.21213
G1 X39.899 Y129.137 E25.24275
G1 X40.11 Y128.241 E25.27337
G1 X40.398 Y127.367 E25.30397
G1 X40.84 Y126.36 E25.34055
G1 X41.133 Y125.778 E25.36222
G1 X41.944 Y124.223 E25.42055
G1 X43.042 Y121.966 E25.50403
G1 X44.092 Y119.64 E25.58892
G1 X45.053 Y117.342 E25.67176
G1 X45.978 Y114.938 E25.75743
G1 X46.807 Y112.591 E25.84022
G1 X47.581 Y110.181 E25.92441
G1 X48.289 Y107.747 E26.00872
G1 X48.925 Y105.3 E26.09281
G1 X49.496 Y102.818 E26.17752
G1 X49.995 Y100.337 E26.26169
G1 X50.413 Y97.886 E26.34439
G1 X50.774 Y95.353 E26.42949
G1 X51.056 Y92.868 E26.51267
G1 X51.279 Y90.247 E26.60016
G1 X51.323 Y89.634 E26.6206
G1 X51.428 Y88.719 E26.65123
G1 X51.612 Y87.817 E26.68185
G1 X51.874 Y86.935 E26.71245
G1 X52.211 Y86.078 E26.74308
G1 X52.622 Y85.254 E26.77371
G1 X53.102 Y84.468 E26.80434
G1 X53.649 Y83.728 E26.83495
G1 X54.258 Y83.037 E26.86558
G1 X54.924 Y82.402 E26.89619
G1 X55.644 Y81.827 E26.92684
G1 X56.41 Y81.317 E26.95744
G0 F6000 X56.019 Y82.05
G1 F1200 X57.044 Y81.415 E26.99755
G1 X59.26 Y80.216 E27.08135
G1 X61.487 Y78.93 E27.16688
G1 X63.614 Y77.618 E27.25
G1 X65.766 Y76.209 E27.33555
G1 X67.841 Y74.761 E27.41971
G1 X69.874 Y73.258 E27.5038
G1 X71.894 Y71.673 E27.5892
G1 X73.809 Y70.08 E27.67205
G1 X75.746 Y68.374 E27.7579
G1 X77.598 Y66.65 E27.84206
G1 X79.397 Y64.876 E27.92609
G1 X81.185 Y63.01 E28.01205
G1 X82.353 Y61.733 E28.06961
G1 X82.807 Y61.227 E28.09222
G1 X83.439 Y60.582 E28.12225
G1 X84.126 Y59.995 E28.15231
G1 X84.862 Y59.472 E28.18234
G1 X85.641 Y59.015 E28.21238
G1 X86.458 Y58.63 E28.24242
G1 X87.305 Y58.318 E28.27244
G1 X88.177 Y58.082 E28.30248
G1 X89.102 Y57.92 E28.33372
G1 X89.289 Y57.896 E28.33999
G1 X90.43 Y57.814 E28.37804
G1 X91.432 Y57.8 E28.41137
G1 X128.911 Y57.8 E29.65792
G1 X129.758 Y57.811 E29.6861
G1 X130.66 Y57.864 E29.71615
G1 X131.553 Y57.996 E29.74617
G1 X132.431 Y58.207 E29.77621
G1 X133.287 Y58.495 E29.80625
G1 X134.115 Y58.857 E29.8363
G1 X134.907 Y59.291 E29.86634
G1 X135.657 Y59.794 E29.89637
G1 X136.36 Y60.36 E29.92639
G1 X137.171 Y61.16 E29.96428
G1 X138.049 Y62.128 E30.00775
G1 X139.824 Y64.034 E30.09438
G1 X141.581 Y65.813 E30.17754
G1 X143.44 Y67.595 E30.26319
G1 X145.313 Y69.29 E30.34721
G1 X147.238 Y70.936 E30.43145
G1 X149.238 Y72.551 E30.51695
G1 X151.224 Y74.063 E30.59997
G1 X153.297 Y75.55 E30.68482
G1 X155.441 Y77 E30.77091
G1 X157.532 Y78.328 E30.85329
G1 X159.757 Y79.654 E30.93944
G1 X162.016 Y80.917 E31.02552
G1 X162.937 Y81.414 E31.06033
G1 X163.712 Y81.877 E31.09036
G1 X164.442 Y82.408 E31.12038
G1 X165.124 Y83.001 E31.15044
G1 X165.749 Y83.652 E31.18046
G1 X166.315 Y84.356 E31.2105
G1 X166.817 Y85.107 E31.24054
G1 X167.25 Y85.899 E31.27057
G1 X167.611 Y86.727 E31.30061
G1 X167.898 Y87.584 E31.33067
G1 X168.107 Y88.462 E31.36069
G1 X168.239 Y89.355 E31.39071
G1 X168.287 Y90.093 E31.41531
G1 X168.296 Y90.403 E31.42562
G1 X168.299 Y90.849 E31.44046
G1 X168.289 Y91.527 E31.46301
G1 X168.236 Y92.429 E31.49306
G1 X168.118 Y93.242 E31.52039
G1 X168.056 Y93.576 E31.53169
G1 X167.613 Y96.165 E31.61905
G1 X167.257 Y98.665 E31.70304
G1 X166.971 Y101.184 E31.78736
G1 X166.755 Y103.733 E31.87244
G1 X166.611 Y106.274 E31.95709
G1 X166.54 Y108.801 E32.04117
G1 X166.54 Y111.34 E32.12562
G1 X166.612 Y113.898 E32.21073
G1 X166.755 Y116.405 E32.29425
G1 X166.971 Y118.941 E32.37891
G1 X167.259 Y121.473 E32.46366
G1 X167.615 Y123.977 E32.54778
G1 X168.077 Y126.635 E32.63752
G1 X168.129 Y126.952 E32.6482
G1 X168.212 Y127.574 E32.66907
G1 X168.226 Y127.712 E32.67368
G1 X168.263 Y128.193 E32.68973
G1 X168.283 Y128.565 E32.70212
G1 X168.292 Y129.468 E32.73216
G1 X168.22 Y130.369 E32.76222
G1 X168.07 Y131.259 E32.79224
G1 X167.841 Y132.133 E32.82229
G1 X167.535 Y132.983 E32.85234
G1 X167.156 Y133.802 E32.88235
G1 X166.706 Y134.585 E32.91239
G1 X166.188 Y135.325 E32.94243
G1 X165.607 Y136.016 E32.97246
G1 X164.967 Y136.653 E33.00249
G1 X164.273 Y137.231 E33.03253
